X: 33020
T: Price Of My Pig, The
R: jig
M: 6/8
K: Adorian
|:E2A AGA|~B3 GAB|cBA BAG|AGE GED|
E2A AGA|~B3 GAB|cBA GBG|1 A3 AGF:|2 ~A3 AB/c/d||
|:e2g d2e|cBA B3|cBA BAG|AGE GED|
E2A AGA|~B3 BAB|cBA GBG|1 ~A3 AB/c/d:|2 A3 AGF||

